X: 5
T: That's Right Too!
R: reel
M: 4/4
L: 1/8
K: Dmaj
|: D2 FA FEED | d2 ef edBd | D2 FA FEED | BcdA FEEE |
D2 FA FEED | d2 ef edBd | ADDD ADAB | AFEF D4 :|
|: afef d3 B | BAFD EF D2 | afef d3 f | efge f3 e |
d/e/d ef edBA | BcdA FEEE | ADDD ADAB | AFEF D4 :|


Tune 1703	Setting 29148

